X:1
T:My Good-Looking Man
M:6/8
L:1/8
K:C
 G| E3 C2- E| F/2 F3/2 D B,2 D| E2 D C2 B,| C3- C2 C| C2 E Gcc| c2 A F2 G/2G/2|\
 A c2 _B2 A| G3- G2 C| C2 E Gcc| c2 A F2 G| A c2 _B2 A| G3- G2 F/2F/2|\
 E E2 C2 E| F2 D B,2 D| E2 D C2 B,| C3- C2||
